X:1
T:James Gibb editions
T:Sleep on, beloved - Barnby
%%score [ ( 1 2 ) ( 3 4 ) ]
L:1/8
Q:1/4=84
M:2/2
K:D
V:1 treble nm="Midi_74"
V:2 treble 
V:3 bass nm="Midi_74"
V:4 bass 
V:1
"^The blessed rest (10 10 10 4)""^Sarah Doudney\n(1841-1926)""^Sleep on, beloved""^Joseph Barnby\n(1838-96)" F4 F2 F2 | %1
 A4 A4 | D2 D2 E2 G2 | F8 || G4 G2 F2 | E2 B2 A2 B2 | c4 B4 | A8 ||[M:2/2] d4 c2 F2 | B4 F4 | %10
 B3 B A2 D2 | G6 || F2 | E4 A4 | D8 || G8 | F8 |] %17
V:2
 D4 D2 D2 | C4 C4 | D2 D2 D2 C2 | D8 || D4 D2 D2 | D2 C2 D2 F2 | E4 D4 | C8 ||[M:2/2] D4 F2 F2 | %9
 F4 F4 | F3 F D2 D2 | D6 || D2 | D4 C4 | D8 || D8 | D8 |] %17
V:3
 A,4 A,2 A,2 | G,4 G,4 | F,2 F,2 B,2 A,2 | A,8 || G,4 A,2 A,2 | B,2 G,2 A,2 A,2 | ^G,4 G,4 | A,8 || %8
[M:2/2]"^1. Sleep on, beloved, sleep, and take thy rest;\nLay down thy head upon thy Saviour's breast;\nWe love thee well, but Jesus loves thee best -\nGoodnight! Goodnight!\n\n2. Calm is thy slumber as an infant's sleep;\nBut thou shalt wake no more to toil and weep;\nThine is a perfect rest, secure and deep -\nGoodnight! Goodnight!\n\n3. Until the shadows from the earth are cast,\nUntil He gathers in His sheaves at last,\nUntil the twilight gloom be overpast -\nGoodnight! Goodnight!\n\n4. Until the Easter glory lights the skies,\nUntil the dead in Jesus shall arise,\nAnd He shall come, but not in lowly guise -\nGoodnight! Goodnight!" A,4 ^A,2 A,2 | %9
 B,4 F,4 | B,3 B, F,2 F,2 | %11
"^5. Until, made beautiful by Love divine,\nThou, in the likeness of thy Lord shall shine,\nAnd He shall bring that golden crown of thine -\nGoodnight! Goodnight!\n\n6. Only \"Goodnight\", beloved, not \"Farewell!\"\nA little while, and all His saints shall dwell\nIn hallowed union, indivisible - \nGoodnight! Goodnight!!\n\n7. Until we meet again before His throne,\nClothed in the spotless robe He gives his own,\nUntil we know, even as we are known -\nGoodnight! Goodnight." G,6 || %12
 A,2 | B,4 G,4 | F,8 || B,8 | A,8 |] %17
V:4
 D,4 D,2 D,2 | A,,4 A,,4 | B,,2 B,,2 G,,2 A,,2 | D,8- || B,,4 A,,2 A,,2 | G,,2 G,2 F,2 D,2 | %6
 E,4 E,4 | A,8 ||[M:2/2] F,4 E,2 E,2 | D,4 F,4 | D,3 D, =C,2 C,2 | B,,6 || A,,2 | G,,4 A,,4 | %14
 D,8 || G,,8 | D,8 |] %17

